X: 462
%
U:~=!turn!
T: Mrs. Colonel Bailie of Red - Castle
C:Jos. Lowe
O:Scotland
B:Keith Norman MacDonald : "The Skye collection of the best reels & strathspeys extant" : 1887
Z:Ralph Palmer
R:Reel
M:C
L:1/8
K:B Aeolian
f | Bfd^g {/b}(ag)af | eAed cAAc | (Bf)f^g {/b}(ag)af | ecac B/2B/2B B :| e | fBdB FBdB | cAEA cAec |
fBdB FBdB | cAec B/2B/2B (Be) | fBdB FBdB | cAEA cAec | Bdce dfe^g | afec B/2B/2B B |]


